X:32
T:Boys of Ballymoate
R:jig
M:6/8
K:D
"D"dAA BAB|"D"def a2f|"A"aba fge|"Bm7"dBB gfe|"D"dAA BAB|
"D"def a2f|"A"aba faf|1 "A"edc "D"d2A:|2 "A"edc "D"d2e||
|:"Bm7"faa fab|"Bm7"afe fef|"A"~a3 fge|"Bm"dBB gfe|
"D"dAA BAB|"D"def a2f|"A"aba faf|1 "A"edc "D"d2e:|2 "A"edc "D"
